X: 1519
T:Peter Feeney's Dream
M:2/4
L:1/16
C:Joe Derrane
S:Jean Carignan
R:Reel
K:DMaj
|:dedc BAFE|DEFD EA, ~A,2|DFAG FAdc|Bfed cgfe|!
dedc BAFE|DEFD EA, ~A,2|DEFA dBAG|(3FGF (3EFE D3 c:|!
"tr"dcde fdfa|d'dd'c' bA a2|A2 (3cBA eA (3cBA|EAce agfe|!
"tr"dcde fdfa|d'dd'c' bA a2|AB (3ccd ef (3ggf|1agfe d2Ac:|2agfe d2 (3ABc
||!
|"variation of first part"(3ded (3cdc (3BcB (3ABA|(3GAG (3FGF EA,CE|DFAG
FAdc|Bfed cgfe|!
dedc BAFE|DEFD EA, ~A,2|DEFA dBAG|(3FGF (3EFE D3 c||!
